src/16/panel/user-idle.svg

<svg height="16" width="16" xmlns="http://www.w3.org/2000/svg"><path d="M3 2S1 2 1 4v6c0 2 2 2 2 2h5l2 3.003L12 12h1c1.108 0 2-.892 2-2V4c0-2-1.969-2-1.969-2zm4 1h2v5H4V6h3z" opacity=".35" fill="#bebebe"/></svg>

<svg xmlns="http://www.w3.org/2000/svg" width="16" height="16" version="1.1">
 <defs>
  <style id="current-color-scheme" type="text/css">
   .ColorScheme-Text { color:#dfdfdf; } .ColorScheme-Highlight { color:#4285f4; }
  </style>
 </defs>
 <path style="opacity:0.3;fill:currentColor" class="ColorScheme-Text" d="M 3,2 C 3,2 1,2 1,4 V 10 C 1,12 3,12 3,12 H 8 L 10,15 12,12 H 13 C 14.11,12 15,11.11 15,10 V 4 C 15,2 13.03,2 13.03,2 Z M 7,3 H 9 V 8 H 4 V 6 H 7 Z"/>
</svg>
